storage/app/icons/phosphoricons/duotone/chats-duotone.svg

<svg xmlns="http://www.w3.org/2000/svg" fill="currentColor" viewBox="0 0 256 256"><path d="M224 96v128l-39.58-32H88a8 8 0 0 1-8-8v-40h88a8 8 0 0 0 8-8V88h40a8 8 0 0 1 8 8" opacity=".2"/><path d="M216 80h-32V48a16 16 0 0 0-16-16H40a16 16 0 0 0-16 16v128a8 8 0 0 0 13 6.22L72 154v30a16 16 0 0 0 16 16h93.59L219 230.22a8 8 0 0 0 5 1.78 8 8 0 0 0 8-8V96a16 16 0 0 0-16-16M66.55 137.78 40 159.25V48h128v88H71.58a8 8 0 0 0-5.03 1.78M216 207.25l-26.55-21.47a8 8 0 0 0-5-1.78H88v-32h80a16 16 0 0 0 16-16V96h32Z"/></svg>

<svg xmlns="http://www.w3.org/2000/svg" viewBox="0 0 256 256" fill="currentColor"><path d="M224,96V224l-39.58-32H88a8,8,0,0,1-8-8V144h88a8,8,0,0,0,8-8V88h40A8,8,0,0,1,224,96Z" opacity="0.2"/><path d="M216,80H184V48a16,16,0,0,0-16-16H40A16,16,0,0,0,24,48V176a8,8,0,0,0,13,6.22L72,154V184a16,16,0,0,0,16,16h93.59L219,230.22a8,8,0,0,0,5,1.78,8,8,0,0,0,8-8V96A16,16,0,0,0,216,80ZM66.55,137.78,40,159.25V48H168v88H71.58A8,8,0,0,0,66.55,137.78ZM216,207.25l-26.55-21.47a8,8,0,0,0-5-1.78H88V152h80a16,16,0,0,0,16-16V96h32Z"/></svg>
